public/images/to-seller.svg

<svg width="44" height="44" fill="none" xmlns="http://www.w3.org/2000/svg"><rect rx="9" width="44" height="44" fill="#F0F3F8" style="mix-blend-mode:normal"/><path d="M22.49 17.83h7M14.5 17.83l1 1 3-3M22.49 27.17h7M14.5 27.17l1 1 3-3" stroke="#1B31FF" stroke-width="1.8" stroke-linejoin="round" stroke-linecap="round"/><path d="M26 35.33c6.66 0 9.33-2.67 9.33-9.33v-8c0-6.67-2.67-9.34-9.33-9.34h-8c-6.67 0-9.34 2.67-9.34 9.34v8c0 6.66 2.67 9.33 9.34 9.33h8z" stroke="#1B31FF" stroke-width="1.8" stroke-linejoin="round"/></svg>

<svg width="44.000000" height="44.000000" viewBox="0 0 44 44" fill="none" xmlns="http://www.w3.org/2000/svg" xmlns:xlink="http://www.w3.org/1999/xlink">
	<desc>
			Created with Pixso.
	</desc>
	<defs/>
	<g style="mix-blend-mode:normal">
		<rect id="Rectangle 39" rx="9.000000" width="44.000000" height="44.000000" fill="#F0F3F8" fill-opacity="1.000000"/>
	</g>
	<path id="Vector" d="M22.49 17.83L29.49 17.83" stroke="#1B31FF" stroke-opacity="1.000000" stroke-width="1.800000" stroke-linejoin="round" stroke-linecap="round"/>
	<path id="Vector" d="M14.5 17.83L15.5 18.83L18.5 15.83" stroke="#1B31FF" stroke-opacity="1.000000" stroke-width="1.800000" stroke-linejoin="round" stroke-linecap="round"/>
	<path id="Vector" d="M22.49 27.17L29.49 27.17" stroke="#1B31FF" stroke-opacity="1.000000" stroke-width="1.800000" stroke-linejoin="round" stroke-linecap="round"/>
	<path id="Vector" d="M14.5 27.17L15.5 28.17L18.5 25.17" stroke="#1B31FF" stroke-opacity="1.000000" stroke-width="1.800000" stroke-linejoin="round" stroke-linecap="round"/>
	<path id="Vector" d="M26 35.33C32.66 35.33 35.33 32.66 35.33 26L35.33 18C35.33 11.33 32.66 8.66 26 8.66L18 8.66C11.33 8.66 8.66 11.33 8.66 18L8.66 26C8.66 32.66 11.33 35.33 18 35.33L26 35.33Z" stroke="#1B31FF" stroke-opacity="1.000000" stroke-width="1.800000" stroke-linejoin="round"/>
	<g opacity="0.000000"/>
</svg>
